X:199
T:Midnight on the Water
M:3/4
L:1/8
K:D
D>E||"D"F2 A2 A2|F2 A2 A2|F2 A>B A>F|"Em"E2 E2 "D"D>E|
F>A d2 "G"B2|"D"A>B A>F D>E|F2 F>D "A"E2|[1 "D"D4 D>E:|[2 "D"D3 A B>c|
|:"D"d3 e d>c|d>c B>A B>c|d3 B A>F|D4 d2|"Em"e3 d e>f|e2 d2 e2|
"Bm"f3 a f>e|d>c B>A B>c|"G"d3 c d>e|d2 c2 B2|"D"A2 A>B A>F|
D3 A, D>E|F>A d>A "G"B2|"D"A>B A>F D>E|F2 F>D "A"E2|[1"D"D3 A B>c:|[2 "D"D6||
